X: 0210
T: The Bob o' Dowally
P: The Bob o' Dowally
C:Caledonian Country Dances 1760
R:Strathspey (8x32)
B:RSCDS 2-10
Z:Anselm Lingnau <anselm@strathspey.org>
M:C
L:1/8
K:A
"A"A>e e2 e>A c<A|"Em"B>e e2 "G"d>=G B<G|\
"A"A>e e2 e>A c<A|"Em"E/E/E E2 "G"=G>A B<G|
"A"A>e e2 e>A c<A|"Em"B>e e2 "G"d>=G B<G|\
"A"A>e e2 e>A c<A|"Em"E/E/E E2 "G"=G>A B<G||
"A"A>a a>e c>a c<A|"G"B>=g g>e d>g B<=G|\
"A"A>a a>e c>e a<e|"G"=g<b "C"e<g "G"d<g B<=G|
"A"A>a a>e c>a c<A|"G"B>=g g>e d>g B<=G|\
"A"A>a a>e c>e a<e | "G"=g<b "C"e<g "G"d<g B<=G|]
%%center Book02/0210-Bob_o_Dowally-AL.abc

%%sep 1 1 500
%%sep 1 1 500

